icons/svg/shields/h_via_ferrata_shield.svg

<?xml version="1.0" encoding="UTF-8" standalone="no"?>
<!-- Created with Inkscape (http://www.inkscape.org/) -->

<svg
   xmlns:dc="http://purl.org/dc/elements/1.1/"
   xmlns:cc="http://creativecommons.org/ns#"
   xmlns:rdf="http://www.w3.org/1999/02/22-rdf-syntax-ns#"
   xmlns:svg="http://www.w3.org/2000/svg"
   xmlns="http://www.w3.org/2000/svg"
   xmlns:sodipodi="http://sodipodi.sourceforge.net/DTD/sodipodi-0.dtd"
   xmlns:inkscape="http://www.inkscape.org/namespaces/inkscape"
   version="1.0"
   width="16"
   height="16"
   id="svg2"
   sodipodi:version="0.32"
   inkscape:version="0.91 r13725"
   sodipodi:docname="h_via_ferrata_shield.svg"
   inkscape:output_extension="org.inkscape.output.svg.inkscape">
  <metadata
     id="metadata2975">
    <rdf:RDF>
      <cc:Work
         rdf:about="">
        <dc:format>image/svg+xml</dc:format>
        <dc:type
           rdf:resource="http://purl.org/dc/dcmitype/StillImage" />
        <cc:license
           rdf:resource="http://web.resource.org/cc/PublicDomain" />
        <dc:language>en</dc:language>
        <dc:title />
      </cc:Work>
    </rdf:RDF>
  </metadata>
  <sodipodi:namedview
     inkscape:window-height="1006"
     inkscape:window-width="1920"
     inkscape:pageshadow="2"
     inkscape:pageopacity="0.0"
     guidetolerance="10.0"
     gridtolerance="10.0"
     objecttolerance="10.0"
     borderopacity="1.0"
     bordercolor="#666666"
     pagecolor="#ffffff"
     id="base"
     inkscape:zoom="32"
     inkscape:cx="7.5593923"
     inkscape:cy="9.3381108"
     inkscape:window-x="1920"
     inkscape:window-y="0"
     inkscape:current-layer="svg2"
     showgrid="false"
     inkscape:window-maximized="1" />
  <defs
     id="defs4">
    <inkscape:perspective
       sodipodi:type="inkscape:persp3d"
       inkscape:vp_x="0 : 290 : 1"
       inkscape:vp_y="0 : 1000 : 0"
       inkscape:vp_z="580 : 290 : 1"
       inkscape:persp3d-origin="290 : 193.33333 : 1"
       id="perspective2441" />
    <inkscape:perspective
       id="perspective3452"
       inkscape:persp3d-origin="30 : 20 : 1"
       inkscape:vp_z="60 : 30 : 1"
       inkscape:vp_y="0 : 1000 : 0"
       inkscape:vp_x="0 : 30 : 1"
       sodipodi:type="inkscape:persp3d" />
    <symbol
       viewBox="244.5 110 489 219.9"
       id="symbol-university">
      <path
         id="path4460"
         d="m 79,43 57,119 c 0,0 21,-96 104,-96 83,0 124,106 124,106 L 407,39 489,22 0,17 79,43 z"
         inkscape:connector-curvature="0" />
      <path
         id="path4462"
         d="M 94,176 73,215"
         inkscape:connector-curvature="0"
         style="fill:none;stroke:#000000;stroke-width:20" />
      <path
         id="path4464"
         d="M 300,19 C 300,29.5 277.4,38 249.5,38 221.6,38 199,29.5 199,19 199,8.5 221.6,0 249.5,0 277.4,0 300,8.5 300,19 z"
         inkscape:connector-curvature="0" />
      <path
         id="path4466"
         d="M 112,216 96,178 64,88 C 64,88 55,80 60,53 65,26 76,29 76,29"
         ill="none"
         inkscape:connector-curvature="0"
         style="stroke:#000000;stroke-width:20" />
    </symbol>
    <inkscape:perspective
       id="perspective4471"
       inkscape:persp3d-origin="372.04724 : 350.78739 : 1"
       inkscape:vp_z="744.09448 : 526.18109 : 1"
       inkscape:vp_y="0 : 1000 : 0"
       inkscape:vp_x="0 : 526.18109 : 1"
       sodipodi:type="inkscape:persp3d" />
    <inkscape:perspective
       id="perspective4668"
       inkscape:persp3d-origin="6 : 4 : 1"
       inkscape:vp_z="12 : 6 : 1"
       inkscape:vp_y="0 : 1000 : 0"
       inkscape:vp_x="0 : 6 : 1"
       sodipodi:type="inkscape:persp3d" />
  </defs>
  <path
     d="m 13.066406,0.21679688 c -0.350962,0.0158175 -0.689174,0.13297129 -0.976562,0.3359375 L 10.498047,1.6347656 c -0.05794,0.039947 -0.111612,0.085762 -0.160156,0.1367188 C 10.035718,1.6298866 9.7758005,1.4086415 9.4375,1.3535156 L 9.43359,1.3515656 C 9.125605,1.3029106 8.8201634,1.3022812 7.828125,1.3046875 l -0.00195,0 c -0.3393441,0.00121 -0.6622445,0.0051 -0.9160157,0.00977 -0.1268855,0.00233 -0.2357907,0.00472 -0.3242187,0.00781 -0.087162,0.00304 -0.085859,-0.00776 -0.2675781,0.019531 -1.3127532,0.1920044 -2.4304867,1.0724107 -2.9121094,2.3125 l 0.00195,0 c -0.1657236,0.4253429 -0.242592,0.8541948 -0.2578125,1.4472656 -8.62e-4,0.031718 -0.00104,0.020895 -0.00195,0.048828 C 3.0414412,5.2680506 2.9159516,5.3487474 2.8554719,5.4960953 2.8229669,5.5752883 2.8397459,5.6256343 2.8222689,5.6972671 2.7889374,5.9313498 2.781542,5.876753 2.7539062,6.0957031 2.75316,6.1299539 2.734375,6.1782149 2.734375,6.2109375 l 0,-0.09375 C 2.6375027,6.2493046 2.4534671,6.2919263 2.3964844,6.484375 2.3105298,6.760755 2.3354401,6.8002677 2.3320312,6.875 2.328368,6.9553091 2.328125,7.0214844 2.328125,7.0214844 l 0,0.019531 0.00781,0.4472656 c 0.00334,0.2034905 0.067262,0.4013668 0.1835937,0.5683594 l 0.072266,0.1035156 c 0.00575,0.0079 0.011607,0.01571 0.017578,0.023438 0.014951,0.020179 0.039751,0.027012 0.052734,0.044922 C 2.551766,8.3768193 2.4290453,8.4972528 2.3847656,8.6738281 2.3110769,8.9676792 2.3242187,9.1471695 2.3242188,9.40625 c 0,0.1834823 0.1263171,0.626601 0.140625,0.662109 0.1100338,0.240891 0.2298138,0.372915 0.3691406,0.5 0,0 -0.064052,-0.256769 -0.097656,0.220703 6.237e-4,0.134408 -1.681e-4,0.285345 0.00586,0.386719 0.00916,0.154102 0.063521,0.394563 0.1289063,0.542969 0.1813073,0.147081 0.2278648,0.407551 0.3417972,0.611327 0.037138,0.352171 0.074704,0.696606 0.1953125,1.00586 l -0.00195,0 c 0.6896844,1.774472 2.6519869,2.731293 4.484375,2.199218 1.1677189,-0.337407 2.0976456,-1.228821 2.4726559,-2.382812 l 0,-0.002 c 0.06756,-0.206783 0.18328,-0.616712 0.38086,-1.304688 0.197852,-0.688925 0.451061,-1.573546 0.701171,-2.4531249 0.250111,-0.8795792 0.49764,-1.7542594 0.685547,-2.421875 0.09395,-0.3338078 0.173209,-0.6157707 0.230469,-0.8222656 0.02863,-0.1032474 0.05101,-0.1878084 0.06836,-0.2519531 0.01716,-0.063452 0.01926,-0.053757 0.04297,-0.1679688 l 0,-0.00195 c 0.06836,-0.3290835 -0.03641,-0.6461911 -0.05859,-0.96875 0.05806,-0.025395 0.113638,-0.056126 0.166016,-0.091797 l 1.587891,-1.078125 0.002,-0.00195 C 14.853714,3.1299676 15.15373,2.2638755 14.898438,1.4824219 14.642757,0.69978883 13.885668,0.17992164 13.066406,0.21679688 Z M 7.2324219,6.859375 c 0.4578214,0.2985066 0.9431768,0.3750898 1.46875,0.2148438 L 8.2597656,8.6113281 C 7.8781528,9.9463137 7.6165523,10.854418 7.4433594,11.439453 c -0.086597,0.292518 -0.1511727,0.50561 -0.1953125,0.644531 -0.043514,0.136953 -0.1018724,0.256829 -0.037109,0.125 -0.00963,0.01956 -0.1370347,0.148042 -0.2636719,0.185547 l 0,0.002 c 0.1513873,-0.0449 -0.3388872,-0.0449 -0.1875,0 -0.1620446,-0.04812 -0.2688913,-0.157504 -0.3203125,-0.318359 0.013741,0.04546 -8.05e-5,-0.05096 -0.00586,-0.08984 0.075124,-0.08638 0.198131,-0.11878 0.2441406,-0.21289 l 0.00586,-0.01172 c 0.051946,-0.109609 0.1244161,-0.391328 0.1347656,-0.554688 0.00989,-0.15617 0.00984,-0.320891 0.00977,-0.59375 l 0.029297,-0.0957 c 0.083114,-0.147198 -0.00734,-0.01876 0.1367187,-0.242187 l -0.00977,0.01758 0.068359,-0.101563 C 7.158501,10.036425 7.2186723,9.8531892 7.2265625,9.6640625 l 0.00781,-0.1875 c 1.217e-4,-0.00911 1.217e-4,-0.01823 0,-0.027344 0.00368,-0.2371 0.00994,-0.3583843 -0.00586,-0.5390626 C 7.212713,8.729478 7.103846,8.4331475 7.0683594,8.3652344 l -0.00391,-0.00586 C 7.0268933,8.2887894 6.9579968,8.2591595 6.9101562,8.1972656 6.949304,8.1442284 6.9958338,8.1358248 7.0488281,8.0429688 l 0.00781,-0.013672 c 0.1884751,-0.3413132 0.1353726,-0.3872584 0.14844,-0.486328 0.013067,-0.09907 0.018909,-0.1843709 0.023437,-0.2636719 0.00906,-0.1585992 0.00977,-0.2949219 0.00977,-0.2949219 -5.26e-5,-0.020197 -7.029e-4,-0.040388 -0.00195,-0.060547 0,0 -0.00261,-0.043641 -0.00391,-0.064453 z m -0.8007813,5.130859 z"
     id="path4174"
     inkscape:connector-curvature="0"
     sodipodi:nodetypes="cccccccccccccccscccccscccccccsscccccccccccsssscccccccsccccsscccccccccccccccccscccccscccccc"
     style="color:#000000;clip-rule:nonzero;display:inline;overflow:visible;visibility:visible;opacity:0.80199998;isolation:auto;mix-blend-mode:normal;color-interpolation:sRGB;color-interpolation-filters:linearRGB;solid-color:#000000;solid-opacity:1;fill:#ebe7e4;fill-opacity:1;fill-rule:nonzero;stroke:none;stroke-width:0.87142246;stroke-linecap:butt;stroke-linejoin:miter;stroke-miterlimit:4;stroke-dasharray:none;stroke-dashoffset:0;stroke-opacity:1;marker:none;filter-blend-mode:normal;filter-gaussianBlur-deviation:0;color-rendering:auto;image-rendering:auto;shape-rendering:auto;text-rendering:auto;enable-background:accumulate" />
</svg>

<svg width="16" height="16" viewBox="0 0 16 16" fill="none" xmlns="http://www.w3.org/2000/svg">
<path opacity="0.802" d="M13.0664 0.216808C12.7154 0.232626 12.3772 0.34978 12.0898 0.552746L10.498 1.63478C10.4401 1.67472 10.3864 1.72054 10.3379 1.7715C10.0357 1.6299 9.77579 1.40865 9.43749 1.35353L9.43358 1.35158C9.1256 1.30292 8.82016 1.30229 7.82812 1.3047H7.82617C7.48682 1.30591 7.16392 1.3098 6.91015 1.31447C6.78327 1.3168 6.67436 1.31919 6.58593 1.32228C6.49877 1.32532 6.50007 1.31452 6.31836 1.34181C5.0056 1.53381 3.88787 2.41422 3.40625 3.65431H3.4082C3.24247 4.07965 3.1656 4.5085 3.15038 5.10158C3.14952 5.13329 3.14934 5.12247 3.14843 5.1504C3.04143 5.26806 2.91594 5.34876 2.85546 5.49611C2.82296 5.5753 2.83974 5.62565 2.82226 5.69728C2.78893 5.93136 2.78153 5.87676 2.7539 6.09571C2.75315 6.12997 2.73437 6.17823 2.73437 6.21095V6.1172C2.6375 6.24932 2.45346 6.29194 2.39648 6.48439C2.31052 6.76077 2.33543 6.80028 2.33202 6.87501C2.32836 6.95532 2.32812 7.0215 2.32812 7.0215V7.04103L2.33593 7.48829C2.33927 7.69178 2.40319 7.88966 2.51952 8.05665L2.59179 8.16017C2.59754 8.16807 2.60339 8.17588 2.60937 8.18361C2.62432 8.20378 2.64912 8.21062 2.6621 8.22853C2.55176 8.37683 2.42904 8.49726 2.38476 8.67384C2.31107 8.96769 2.32421 9.14718 2.32421 9.40626C2.32421 9.58974 2.45053 10.0329 2.46484 10.0684C2.57487 10.3093 2.69465 10.4413 2.83398 10.5684C2.83398 10.5684 2.76993 10.3116 2.73632 10.7891C2.73694 10.9235 2.73615 11.0744 2.74218 11.1758C2.75134 11.3299 2.8057 11.5704 2.87109 11.7188C3.05239 11.8658 3.09895 12.1263 3.21288 12.3301C3.25002 12.6823 3.28759 13.0267 3.4082 13.3359H3.40625C4.09593 15.1104 6.05823 16.0672 7.89062 15.5352C9.05834 15.1978 9.98827 14.3063 10.3633 13.1524V13.1504C10.4308 12.9436 10.5466 12.5336 10.7441 11.8457C10.942 11.1567 11.1952 10.2721 11.4453 9.39254C11.6954 8.51296 11.9429 7.63828 12.1309 6.97067C12.2248 6.63686 12.3041 6.3549 12.3613 6.1484C12.39 6.04515 12.4123 5.96059 12.4297 5.89645C12.4468 5.833 12.4489 5.84269 12.4727 5.72848V5.72653C12.541 5.39745 12.4362 5.08034 12.4141 4.75778C12.4721 4.73238 12.5277 4.70165 12.5801 4.66598L14.168 3.58786L14.17 3.58591C14.8537 3.12998 15.1537 2.26389 14.8984 1.48243C14.6428 0.6998 13.8857 0.179933 13.0664 0.216808ZM7.23241 6.85939C7.69024 7.15789 8.17559 7.23448 8.70116 7.07423L8.25976 8.61134C7.87815 9.94633 7.61655 10.8544 7.44335 11.4395C7.35676 11.732 7.29218 11.9451 7.24804 12.084C7.20453 12.2209 7.14617 12.3408 7.21093 12.209C7.2013 12.2286 7.0739 12.357 6.94726 12.3945V12.3965C7.09865 12.3516 6.60837 12.3516 6.75976 12.3965C6.59771 12.3484 6.49087 12.239 6.43945 12.0782C6.45319 12.1236 6.43937 12.0272 6.43359 11.9883C6.50871 11.902 6.63172 11.8696 6.67773 11.7755L6.68359 11.7637C6.73553 11.6541 6.808 11.3724 6.81835 11.209C6.82824 11.0529 6.82819 10.8882 6.82812 10.6153L6.85742 10.5196C6.94053 10.3724 6.85008 10.5008 6.99414 10.2774L6.98437 10.295L7.05273 10.1934C7.15849 10.0364 7.21867 9.8532 7.22656 9.66407L7.23437 9.47657C7.23449 9.46746 7.23449 9.45834 7.23437 9.44923C7.23805 9.21213 7.24431 9.09085 7.22851 8.91017C7.21271 8.72949 7.10384 8.43316 7.06835 8.36525L7.06444 8.35939C7.02689 8.2888 6.95799 8.25917 6.91015 8.19728C6.9493 8.14424 6.99583 8.13584 7.04882 8.04298L7.05663 8.02931C7.24511 7.688 7.192 7.64205 7.20507 7.54298C7.21814 7.44391 7.22398 7.35861 7.22851 7.27931C7.23757 7.12071 7.23828 6.98439 7.23828 6.98439C7.23823 6.96419 7.23758 6.944 7.23633 6.92384C7.23633 6.92384 7.23372 6.8802 7.23242 6.85939H7.23241Z" fill="#EBE7E4"/>
</svg>
